X: 317
T:Finbar Dwyer's
T:Gan Anam Feb 14 reel 1
M:C
L:1/8
S:from Mike Rafferty
R:Reel
Z:Tom Madden
K:D
|:A2 EA ceed|BGG2 eBdB|eAce a2ed|cedB BAA2:||
|:a2 ea agba|ge~e2 g3z|a2 ea agba|gedB BAA2|
a2 ea agba|ge~e2 g3a|bzba gaba|gedB eBdB:|"Fine"A4z4||

